X: 3
T:Country Gardens
M:4/4
L:1/8
Q:1/4=150
O:Fieldtown
P:A(A2(BA)2)4
K:G
P:A
gagf e2e2|dedc B2(3BBc|d2G2 ABcA|B3A G4|]
P:B
gfga f2d2|efge f2d2|g3(3efg a2ag|fgfe d4|]
